src/assets/Cahlet.svg

<svg xmlns="http://www.w3.org/2000/svg" width="40" height="40" fill="none"><g clip-path="url(#a)"><mask id="b" width="40" height="40" x="0" y="0" maskUnits="userSpaceOnUse" style="mask-type:luminance"><path fill="#fff" stroke="#fff" stroke-width="2" d="M39 39V1H1v38z"/></mask><g stroke="#020A0A" stroke-linecap="round" stroke-linejoin="round" stroke-miterlimit="10" stroke-width="2" mask="url(#b)"><path d="M1.172 38.828h37.656m-35.312 0V20h14.14v18.828"/></g><path stroke="#020A0A" stroke-linecap="round" stroke-linejoin="round" stroke-miterlimit="10" stroke-width="2" d="M8.203 24.688h4.766m-4.766 4.687h4.766m-4.766 4.688h4.766"/><mask id="c" width="40" height="40" x="0" y="0" maskUnits="userSpaceOnUse" style="mask-type:luminance"><path fill="#fff" stroke="#fff" stroke-width="2" d="M39 39V1H1v38z"/></mask><g stroke="#020A0A" stroke-linecap="round" stroke-linejoin="round" stroke-miterlimit="10" stroke-width="2" mask="url(#c)"><path d="M31.719 29.375a4.688 4.688 0 0 1-9.375 0c0-2.589 2.098-7.031 4.687-7.031s4.688 4.442 4.688 7.031m-4.688 9.453v-4.766"/><path d="M36.484 38.828V5.86L12.97 1.172V20m4.686-11.719h4.688m-4.688 4.688h4.688m4.687 0h4.688m-4.688 4.687h4.688M5.86 10.625V20"/></g></g><defs><clipPath id="a"><path fill="#fff" d="M0 0h40v40H0z"/></clipPath></defs></svg>

<svg xmlns="http://www.w3.org/2000/svg" width="40" height="40" fill="none"><g clip-path="url(#a)"><mask id="b" width="40" height="40" x="0" y="0" maskUnits="userSpaceOnUse" style="mask-type:luminance"><path fill="#fff" stroke="#fff" stroke-width="2" d="M39 39V1H1v38z"/></mask><g stroke="#020A0A" stroke-linecap="round" stroke-linejoin="round" stroke-miterlimit="10" stroke-width="2" mask="url(#b)"><path d="M1.172 38.828h37.656M3.516 38.828V20h14.14v18.828"/></g><path stroke="#020A0A" stroke-linecap="round" stroke-linejoin="round" stroke-miterlimit="10" stroke-width="2" d="M8.203 24.688h4.766M8.203 29.375h4.766M8.203 34.063h4.766"/><mask id="c" width="40" height="40" x="0" y="0" maskUnits="userSpaceOnUse" style="mask-type:luminance"><path fill="#fff" stroke="#fff" stroke-width="2" d="M39 39V1H1v38z"/></mask><g stroke="#020A0A" stroke-linecap="round" stroke-linejoin="round" stroke-miterlimit="10" stroke-width="2" mask="url(#c)"><path d="M31.719 29.375a4.688 4.688 0 0 1-9.375 0c0-2.589 2.098-7.031 4.687-7.031s4.688 4.442 4.688 7.031M27.031 38.828v-4.766"/><path d="M36.484 38.828V5.86L12.97 1.172V20M17.656 8.281h4.688M17.656 12.969h4.688M27.031 12.969h4.688M27.031 17.656h4.688M5.86 10.625V20"/></g></g><defs><clipPath id="a"><path fill="#fff" d="M0 0h40v40H0z"/></clipPath></defs></svg>
